X: 1
T: Irish Wedding Song
R: waltz
M: 3/4
L: 1/8
S: Words Jason Whiteman  Tune Gerry Strong <gstrong@TERRA.NLNET.NF.CA>
K: D
|: F>G | A4 F>G | A4 Bc | d4 cB | A4 z d \
| d4 c>B | A4 z d | d2c3d | e4 z f | f2 f3 f |
| e2 d3 d | d2 c3 B | A4 z d | d2 c3 B | A2 d3 g \
| f2 c3 e | d6- | d4 z A | A2 e3 e | e2 c3 d |
| d2 G3 B | A4 z A | A2 e3 e | e2 d3 d | d2 c3 d \
| e6 | f2 f3 f | e2 d3 d | d2 c2 B2 | A4 z d |
| d2 c3 B | A2 d3 g | f2 c3 e | d4 z d | d2 c3 B \
| A2 d3 g | f2 c3 e | d4 |]
W:
W: Here they stand hand in hand
W: they've exchanged wedding bands
W: Today is the day of their dreams and their plans,
W: and all we who love them just wanted to say.
W: May God bless this couple who married today
W:
W: In good times and bad times in sickness and health
W: may they know that riches are not needed for wealth
W: and help them face problems they'll meet on their way
W: Oh god bless this couple who married today
W:
W: May they find peace of mind comes to all who are kind
W: May the rough times ahead become triumphs in time
W: May their children be happy each day
W: Oh God bless this family who started today
W:
W: As they go may they know every love that was shown
W: And as life it gets shorter may their feelings grow
W: Wherever they travel wherever they stay
W: May God bless this couple who married today
W:
W: *substitute first names of bride and groom in the last line of song
W: as in god bless...and ....
